!!! OTL: Literature107
!!! Chapter: 5
!!! Section: III
!!! Page: 369
!!! Mode: 
!!! Encoder: DJB
**kern
*staff1
*I"Piano
=1-
*clefG2
*k[]
*a:
*M2/4
16b\LL
16cc\J
8dd\J
16ee\LL
16dd\
16cc\
16b\JJ
=2
8a/L
8a/J
4b\
=3
16b\LL
16cc\
16dd\
16ee\JJ
8dd\L
16cc\L
16b\JJ
=4
8a/L
8a/J
4b\
=5
16b\LL
16cc\J
8dd\J
16ee\LL
16dd\
16cc\
16b\JJ
=6
8a/L
8a/J
8b/L
8b/J
=7
16b\LL
16cc\
16dd\
16ee\JJ
16dd\LL
16cc\
16b\
16a\JJ
=8
8g/L
8f/J
4e/
==
*-
